X:9
T:MacArthur Road
T:Harmony 2
R:Reel
C:Adam Blaine
L:1/8
M:C|
K:D
[|{g}dA {gAGAG}A2 {g}AB{g}de | {fege} f2 {g}fd {g}ed{g}Bd | {gef}e2 {A}ef {g}ed{g}Bd | {g}ef{g}fd {g}ed{g}Be |
{g}dA {gAGAG}A2 {g}AB{g}de | {fege} f2 {g}fd {g}ed{g}Bd | {gef}e2 {A}ef {g}ed{g}B{d}A| {g}AB{g}de {Gdc}d2 {g}de ||
{g}fA {gAGAG}A2 {g}fAgA | {gfg}f2 ge {g}fd{g}Bd | {gef}e2 {A}ef {g}ed{g}Bd | {g}ef{g}fd {g}ed{g}Bd |
{g}fA {gAGAG}A2 {g}fAgA | {gfg}f2 ge {g}fd{g}Bd | {gef}e2 {A}ef {g}ed{g}B{d}A | {g}AB{g}de {Gdc}d2 {g}de |
{g}f4 {g}f2 g2 | f2 g2 f4 | {g}(e8 | e4) {g}f2g2 |
"Welcome back to Wish.com"{g}dA {gAGAG}A2 {g}AB{g}de | {g}fA gA {g}ed{g}A2 | {g}dedc {g}BcBG | {g}dA{g}BA {g}eA{g}fA | {g}f2e2 {g}AB{g}ce |
{g}(d8 | d8) | {g}A8 | {g}B3 d3 A2 | {g}(A8 | A2) B2 {g}A z3 |]

